flaticon/sport/eight-ball.svg

<svg xmlns="http://www.w3.org/2000/svg" width="32" height="32" viewBox="0 0 24 24">
    <path d="M 12 0 C 5.382812 0 0 5.382812 0 12 C 0 18.617188 5.382812 24 12 24 C 18.617188 24 24 18.617188 24 12 C 24 5.382812 18.617188 0 12 0 Z M 12 23.171875 C 5.839844 23.171875 0.828125 18.160156 0.828125 12 C 0.828125 5.839844 5.839844 0.828125 12 0.828125 C 18.160156 0.828125 23.171875 5.839844 23.171875 12 C 23.171875 18.160156 18.160156 23.171875 12 23.171875 Z M 12 23.171875"/>
    <path d="M 9.515625 3.308594 C 5.636719 3.308594 2.484375 6.375 2.484375 10.136719 C 2.484375 13.902344 5.636719 16.964844 9.515625 16.964844 C 13.394531 16.964844 16.550781 13.902344 16.550781 10.136719 C 16.550781 6.375 13.394531 3.308594 9.515625 3.308594 Z M 9.515625 16.136719 C 6.09375 16.136719 3.308594 13.445312 3.308594 10.136719 C 3.308594 6.828125 6.09375 4.136719 9.515625 4.136719 C 12.941406 4.136719 15.722656 6.828125 15.722656 10.136719 C 15.722656 13.445312 12.941406 16.136719 9.515625 16.136719 Z M 9.515625 16.136719"/>
    <path d="M 12 8.070312 C 12 6.8125 10.980469 5.792969 9.722656 5.792969 L 8.484375 5.792969 C 7.226562 5.792969 6.207031 6.8125 6.207031 8.070312 C 6.207031 8.839844 6.589844 9.519531 7.179688 9.929688 C 6.589844 10.34375 6.207031 11.023438 6.207031 11.792969 C 6.207031 13.046875 7.226562 14.070312 8.484375 14.070312 L 9.722656 14.070312 C 10.980469 14.070312 12 13.046875 12 11.792969 C 12 11.023438 11.613281 10.34375 11.027344 9.929688 C 11.613281 9.519531 12 8.839844 12 8.070312 Z M 11.171875 11.792969 C 11.171875 12.589844 10.523438 13.242188 9.722656 13.242188 L 8.484375 13.242188 C 7.683594 13.242188 7.035156 12.589844 7.035156 11.792969 C 7.035156 10.996094 7.683594 10.34375 8.484375 10.34375 L 9.722656 10.34375 C 10.523438 10.34375 11.171875 10.996094 11.171875 11.792969 Z M 9.722656 9.515625 L 8.484375 9.515625 C 7.683594 9.515625 7.035156 8.867188 7.035156 8.070312 C 7.035156 7.269531 7.683594 6.621094 8.484375 6.621094 L 9.722656 6.621094 C 10.523438 6.621094 11.171875 7.269531 11.171875 8.070312 C 11.171875 8.867188 10.523438 9.515625 9.722656 9.515625 Z M 9.722656 9.515625"/>
</svg>

<svg xmlns="http://www.w3.org/2000/svg" width="32" height="32" viewBox="0 0 24 24">
    <path d="M12 0C5.383 0 0 5.383 0 12s5.383 12 12 12 12-5.383 12-12S18.617 0 12 0zm0 23.172C5.84 23.172.828 18.16.828 12 .828 5.84 5.84.828 12 .828 18.16.828 23.172 5.84 23.172 12c0 6.16-5.012 11.172-11.172 11.172zm0 0"/>
    <path d="M9.516 3.309c-3.88 0-7.032 3.066-7.032 6.828 0 3.765 3.153 6.828 7.032 6.828s7.035-3.063 7.035-6.828c0-3.762-3.156-6.828-7.035-6.828zm0 12.828c-3.422 0-6.207-2.692-6.207-6 0-3.309 2.785-6 6.207-6 3.425 0 6.207 2.691 6.207 6 0 3.308-2.782 6-6.207 6zm0 0"/>
    <path d="M12 8.07a2.277 2.277 0 0 0-2.277-2.277H8.484A2.277 2.277 0 0 0 6.207 8.07c0 .77.383 1.45.973 1.86a2.27 2.27 0 0 0-.973 1.863 2.28 2.28 0 0 0 2.277 2.277h1.239A2.28 2.28 0 0 0 12 11.793c0-.77-.387-1.45-.973-1.863.586-.41.973-1.09.973-1.86zm-.828 3.723c0 .797-.649 1.45-1.45 1.45H8.485c-.8 0-1.449-.653-1.449-1.45 0-.797.649-1.45 1.45-1.45h1.238c.8 0 1.449.653 1.449 1.45zm-1.45-2.277H8.485a1.448 1.448 0 1 1 0-2.895h1.239a1.448 1.448 0 0 1 0 2.895zm0 0"/>
</svg>
